!!!COM: Palestrina, Giovanni Perluigi da
!!!OPR: Missa Salvum me fac
!!!OMD: Kyrie
!!!OTL: Christe
**kern	**kern	**kern	**kern
*Itenor	*Icalto	*Icant	*Icant
!Tenor	!Altus	!Cantus 2	!Cantus 1
*clefGv2	*clefG2	*clefG2	*clefG2
*k[b-]	*k[b-]	*k[b-]	*k[b-]
*G:dor	*G:dor	*G:dor	*G:dor
*M4/2	*M4/2	*M4/2	*M4/2
=32	=32	=32	=32
0r	1g	0r	1r
.	2g	.	1dd
.	[2b-	.	.
=33	=33	=33	=33
0r	2b-]	0r	2dd
.	4a	.	1ff
.	4g	.	.
.	2f	.	.
.	2g	.	4ee
.	.	.	4dd
=34	=34	=34	=34
0r	2a	1r	2cc
.	2.b-	.	2dd
.	.	1dd	2g
.	8a	.	.
.	8g	.	.
.	2f	.	2a
=35	=35	=35	=35
0r	2g	2dd	1b-
.	4d	1ff	.
.	4e	.	.
.	4f	.	4a
.	4g	.	4b-
.	[2a	4ee	4cc
.	.	4dd	4dd
=36	=36	=36	=36
0r	2a]	2cc	2ee
.	2d	2dd	2ff
.	2b-	2g	2dd
.	[2a	2a	2cc#
=37	=37	=37	=37
1r	4a]	1b-	[0dd
.	4g	.	.
.	1g	.	.
1d	.	1a	.
.	4f	.	.
.	4e	.	.
=38	=38	=38	=38
2d	4f	2r	1dd]
.	4e	.	.
1f	4d	2a	.
.	4c	.	.
.	2d	2a	1r
4e	2A	[2cc	.
4d	.	.	.
=39	=39	=39	=39
2c	1a	2cc]	2r
2d	.	4b-	2dd
.	.	4a	.
2G	2g	2b-	2dd
2A	4f	[2a	[2ff
.	4e	.	.
=40	=40	=40	=40
1B-	1d	2a]	2ff]
.	.	2g	4ee
.	.	.	4dd
2A	2e	2.a	2cc
2d	2f	.	2dd
.	.	4b	.
=41	=41	=41	=41
2c	2e	1cc	2g
2A	2c	.	2a
2G	1g	[1dd	1b-
[2g	.	.	.
=42	=42	=42	=42
2g]	1d	0dd]	1a
2f#	.	.	.
1g	2r	.	2.b-
.	2g	.	.
.	.	.	4cc
=43	=43	=43	=43
1G	2g	2r	1dd
.	1b-	2dd	.
1r	.	2dd	1r
.	4a	[2ff	.
.	4g	.	.
=44	=44	=44	=44
0r	2f	2ff]	2r
.	2g	4ee-	2g
.	.	4dd	.
.	2c	2ee-	2g
.	2d	2dd	[2b-
=45	=45	=45	=45
0r	1e-	1g	2b-]
.	.	.	4a
.	.	.	4g
.	[1d	2a	2f
.	.	2b-	[2g
=46	=46	=46	=46
1r	1d]	2a	2g]
.	.	2dd	2f#
2r	1r	2dd	[1g
2c	.	[2ee-	.
=47	=47	=47	=47
2c	2r	4ee-]	1g]
.	.	8dd	.
.	.	8cc	.
1e-	2g	2b-	.
.	2g	2cc	1r
4d	[2b-	[2dd	.
4c	.	.	.
=48	=48	=48	=48
2B-	2b-]	2dd]	1r
2c	4a	4cc	.
.	4g	4b-	.
2d	2f	2a	2r
4G	2g	2b-	2dd
4A	.	.	.
=49	=49	=49	=49
4B-	2d	1f	2dd
4c	.	.	.
4d	2a	.	1ff
4e	.	.	.
4f	2a	1r	.
4g	.	.	.
[2a	[2cc	.	4ee
.	.	.	4dd
=50	=50	=50	=50
2a]	2cc]	0r	2cc
1g	4b-	.	2dd
.	4a	.	.
.	2b-	.	2g
2f#	2a	.	2a
=51	=51	=51	=51
2g	1g	1dd	1b-
2G	.	.	.
1d	2f	2dd	2a
.	4d	[2ff	2a
.	4e	.	.
=52	=52	=52	=52
0r	4f	2ff]	2a
.	4g	.	.
.	1a	4ee	1cc
.	.	4dd	.
.	.	2cc	.
.	4g	2dd	4b-
.	4f	.	4a
=53	=53	=53	=53
0r	2e	2ee	2g
.	2d	2.ff	1a
.	2f	.	.
.	.	4ee	.
.	2g	[2dd	2b-
=54	=54	=54	=54
1r	1e	2dd]	1g
.	.	2cc	.
2r	1d	2.ff	1a
2d	.	.	.
.	.	4ee	.
=55	=55	=55	=55
2d	0r	2dd	2r
1f	.	2.cc	2a
.	.	.	2a
.	.	8b-	.
.	.	8a	.
4e	.	2g	[2cc
4d	.	.	.
=56	=56	=56	=56
2c	2r	1a	2cc]
2d	2d	.	4b-
.	.	.	4a
2G	2d	2r	2b-
2A	[2f	2cc	2a
=57	=57	=57	=57
1B-	4f]	2dd	2.f
.	4e	.	.
.	2d	1ff	.
.	.	.	4g
[1A	2.c	.	[1a
.	.	4ee	.
.	4d	4dd	.
=58	=58	=58	=58
0A]	2e	2cc	1a]
.	2f	1dd	.
.	1e	.	1a
.	.	2cc#	.
=59	=59	=59	=59
1G	1g	1dd	2.b-
.	.	.	4cc
2G	2b-	2g	1dd
2F#	2a	2a	.
=60	=60	=60	=60
0G	0g	0b-	0dd
=61	=61	=61	=61
[0d	[0f#	[0a	[0dd
=62	=62	=62	=62
0d]	0f#]	0a]	0dd]
==	==	==	==
*-	*-	*-	*-
!!!CDT: 1525/^1526/-1594/2/2
!!!OCY: Italia
!!!AGN: Mass (Parody)
!!!AST: renaissance, vocal
!!!ASW: Motet 1538 (Jacquet)
!!!PWK: Masses, Book 2
!!!RNB: Cadence finals: D
!!!YOR: Le Opere Complete, v. 4, p. 126
!!!YOO: Rome, Italy: Fratelli Scalera
!!!END: 1992//
!!!EED: John Miller
!!!YEC: Copyright 2000, John Miller
!!!YEN: United States of America
!!!YEM: Rights to all derivative electronic formats reserved.
!!!YEM: Refer to licensing agreement for further details.
!!!YEM: This file must be accompanied by the licensing agreement.
!!!YEM: A copy of the licensing agreement may be found at http://www.music-cog.ohio-state.edu/HumdrumDatabases/Palestrina/license.txt
!!!EMD: converted to Humdrum by Bret Aarden
